X: 27464
T: Molly MacAlpin
R: barndance
M: 4/4
K: Eminor
V:1
|:EF|"Em" G2 F>E E2 DE|G2 F>E "D"D2 GA|"G,"B2 AB AGFE|"C"E4 E2 AB|
V:2
|:ef|e4 d4|e2 dc B4|e4 d4|e2 dc B4|
V:1
"A,m" c2 cd "G,"B2 Bc|"D"A^GAB "C"e3d|"Em"edBA "D"AGED|"Em"E6:|
V:2
A2 AB G4|A2 c2 c4|B2 G2 F4|G6:|
V:1
|:Bc|"G,"dBAB d3 e|"B,m"dBAB d3 B|"Em"edef "D"edBd|"C"e6 ed|
V:2
|:Bc|G4 B4|e4 fdBd|e4 d4|edBd e4|
V:1
"A,m"c2 cd "G,"B2 Bc|"D"A^GAB "C"e3d|"Em"edBA "D"AGED|"Em"E6:|
V:2
A2 AB G4|A2 c2 c4|B2 G2 F4|G6:|

